packages/foundations/assets/icons/functional/images/navigation/log_in_28.svg

<svg width="28" height="28" viewBox="0 0 28 28" fill="none" xmlns="http://www.w3.org/2000/svg">
<g clip-path="url(#clip0_187_44)">
<path fill-rule="evenodd" clip-rule="evenodd" d="M22.0938 3.5C23.5427 3.5 24.7188 4.676 24.7188 6.125V21.875C24.7188 23.324 23.5427 24.5 22.0938 24.5H16.8438C16.3511 24.5 15.9688 24.1168 15.9688 23.625C15.9688 23.1324 16.3511 22.75 16.8438 22.75H22.0938C22.5855 22.75 22.9688 22.3668 22.9688 21.875V6.125C22.9688 5.63325 22.5855 5.25 22.0938 5.25H16.8438C16.3511 5.25 15.9688 4.86762 15.9688 4.375C15.9688 3.88238 16.3511 3.5 16.8438 3.5H22.0938ZM12.4688 7.875C12.6875 7.875 12.9062 7.95725 13.0699 8.12088L18.3479 13.3989C18.5115 13.5625 18.5938 13.7812 18.5938 14C18.5938 14.2188 18.5115 14.4646 18.3479 14.6291L13.0979 19.8791C12.9334 20.0428 12.6875 20.125 12.4688 20.125C11.949 20.125 11.5938 19.7426 11.5938 19.25C11.5938 19.0312 11.676 18.8125 11.8396 18.6489L15.6135 14.875H4.15625C3.6645 14.875 3.28125 14.4926 3.28125 14C3.28125 13.5354 3.6645 13.125 4.15625 13.125H15.6135L11.8396 9.37912C11.648 9.21462 11.5938 8.96875 11.5938 8.75C11.5938 8.25825 11.949 7.875 12.4688 7.875Z" fill="#1A1C1F"/>
</g>
<defs>
<clipPath id="clip0_187_44">
<rect width="28" height="28" fill="white"/>
</clipPath>
</defs>
</svg>

<svg xmlns="http://www.w3.org/2000/svg" width="28" height="28" fill="none"><g clip-path="url(#a)"><path fill="#1A1C1F" fill-rule="evenodd" d="M22.094 3.5a2.626 2.626 0 0 1 2.625 2.625v15.75a2.626 2.626 0 0 1-2.625 2.625h-5.25a.864.864 0 0 1-.875-.875c0-.493.382-.875.875-.875h5.25a.864.864 0 0 0 .875-.875V6.125a.864.864 0 0 0-.875-.875h-5.25a.863.863 0 0 1-.875-.875c0-.493.382-.875.875-.875zm-9.625 4.375c.219 0 .437.082.6.246l5.279 5.278a.85.85 0 0 1 .246.601.92.92 0 0 1-.246.63l-5.25 5.25a.92.92 0 0 1-.63.245c-.519 0-.874-.382-.874-.875 0-.219.082-.437.246-.601l3.774-3.774H4.156A.864.864 0 0 1 3.281 14c0-.465.383-.875.875-.875h11.458L11.84 9.379c-.192-.164-.246-.41-.246-.629 0-.492.355-.875.875-.875" clip-rule="evenodd"/></g><defs><clipPath id="a"><path fill="#fff" d="M0 0h28v28H0z"/></clipPath></defs></svg>
